X:5
T:Ask My Father   
B:CRE1.062 (Fiafraigh de m'Athair Me)
F:file ID: cre.1/005ask_f
S:John Potts
M:12/8
Q:160
R:jig
K:G
A/G/|F2D D3 A2G F2D|A3 B2G ABA A2G|
"3"F2D D3 A2G F2D|G2B A2F G2B A2G|
"5"F2D D3 A2G F2D|A3 B2G ABA A2G|
"7"F2D D3 A2G F2D|G2B A2F G3-G2||
g|"9"f2d d2e f2d cAG|A3 B2G ABA A2g|
"11"f2d d2e f2d cAF|G2B A2F G3-G2g|
"13"f2d d2e f2d cAG|A3 B2G ABA A2g|
"15"f2d d2e f2g a2g|f2d c2A G3-G2||

%%%

